ALY_Tests/ALY_Button_Style/ALY_Button_Style/Assets/Icons/PaperClipIcon.svg

<svg xmlns="http://www.w3.org/2000/svg" id="attemptIcon" width="100%" height="100%" viewBox="0 0 24 24">
    <path
     d="M6,0L23.5,0C28.186996,0 32,3.8129959 32,8.5 32,13.186996 28.186996,17 23.5,17L13,17C12.447998,17 12,16.551994 12,16 12,15.447998 12.447998,15 13,15L23.5,15C27.084,15 30,12.084 30,8.5 30,4.9160004 27.084,2 23.5,2L6,2C3.7939911,2 2,3.7939987 2,6 2,8.2059937 3.7939911,10 6,10L23.5,10C24.326996,10 25,9.3269958 25,8.5 25,7.6729965 24.326996,7 23.5,7L7,7C6.447998,7 6,6.5519943 6,6 6,5.447998 6.447998,5 7,5L23.5,5C25.429993,5 27,6.5699997 27,8.5 27,10.43 25.429993,12 23.5,12L6,12C2.6909943,12 0,9.3089981 0,6 0,2.6909943 2.6909943,0 6,0z"
     fill="#000000"
     id="path158" />
</svg>

<svg xmlns="http://www.w3.org/2000/svg" id="paperClipIcon" viewBox="0 0 32 32">
    <path id="fillElement"
        d="m6 0h17.5c4.687 0 8.5 3.813 8.5 8.5 0 4.687-3.813 8.5-8.5 8.5h-10.5c-0.552 0-1-0.44801-1-1 0-0.552 0.448-1 1-1h10.5c3.584 0 6.5-2.916 6.5-6.5 0-3.584-2.916-6.5-6.5-6.5h-17.5c-2.206 0-4 1.794-4 4 0 2.206 1.794 4 4 4h17.5c0.827 0 1.5-0.673 1.5-1.5 0-0.827-0.673-1.5-1.5-1.5h-16.5c-0.552 0-1-0.44801-1-1 0-0.552 0.448-1 1-1h16.5c1.93 0 3.5 1.57 3.5 3.5 0 1.93-1.57 3.5-3.5 3.5h-17.5c-3.309 0-6-2.691-6-6 0-3.309 2.691-6 6-6z"
        fill="#1d5eed" transform="rotate(135)" transform-origin="45% 38%" />
</svg>
